X:1
T:Title
%%score ( 1 2 ) { 3 | 4 }
L:1/8
Q:1/4=100
M:6/8
K:E
V:1 treble nm="Grand Piano, Soprano"
V:2 treble 
V:3 bass nm="Choir Pad, Tell Me of the King"
V:4 bass 
V:1
 [GB]2 [GB] [GB]2 [Ac] | [GB]2 [FA] [EG]3 | [EG]2 [EG] [FA]2 [EG] | [EG]3 [DF]3 | %4
w: By~J.~Howard~Entwisle * * *||||
 [FA]2 [FA] [FA]2 [GB] | [FA]2 [EG] [DF]3 | [DF]2 [EG] [FA]2 [Ac] | [Ac]3 [GB]3 | %8
w: ||||
 [GB]2 [GB] [GB]2 [Ac] | [GB]2 [EG] [Ge]3 | [GB]2 [GB] [GB]2 [Ac] | [GB]2 [EG] [Ge]3 | %12
w: ||||
 [ce]2 [ce] [Bd]2 [Ac] | [GB]2 [FA] [EG]3 | [DF]2 [FA] [EG]2 [DF] | E6 | %16
w: ||||
[M:4/4] [DF]3- [DF]/[EG]/ [FA]>[^EG] [FA]>[Ac] | [GB]6 z2 | %18
w: ||
 [FA]3- [FA]/[^EG]/ [FA]>[GB] [Ac]>[Ad] | e6 z2 | [Ae]2 [Ee]2 [Ed]3 [Ec] | [Ec]2 [EB]2 [EG]2 z2 | %22
w: ||||
 [DF]4- [DF]>[FA] [EG]>[B,F] | [B,E]8 |] %24
w: ||
V:2
 x6 | x6 | x6 | x6 | x6 | x6 | x6 | x6 | x6 | x6 | x6 | x6 | x6 | x6 | x6 | x6 |[M:4/4] x8 | x8 | %18
 x8 | G2 A2 G2 z2 | x8 | x8 | x8 | x8 |] %24
V:3
 E,3 B,3 | E,3 B,3 | B,,3 B,3 | B,,3 B,3 | B,,3 B,3 | B,,3 B,3 | B,,3 B,3 | E,G,B, .E3 | E,3 z3 | %9
 E,3 z3 | E,3 z3 | E,3 z3 | A,,3 z3 | E,3 z3 | B,3 B,2 A, | G,6 |[M:4/4] B,2 B,2[K:treble] D2 D2 | %17
 E2 E2 E2 z2 | D2 B,2 B,2 B,2 | B,2 C2 B,2 z2 | C2 C2 B,3 A, | A,2 G,2 B,2 z2 | %22
 B,2 B,2 B,>B, B,>B, | G,8 |] %24
V:4
 z6 | z6 | z6 | z6 | z6 | z6 | z6 | z6 | z6 | z6 | z6 | z6 | z6 | z6 | B,,3 .B,,3 | E,6 | %16
[M:4/4] B,,2 B,,2 B,,2 B,,2 | E,2 E,2 E,2 z2 | B,2 z2 B,,2 B,,2 | E,2 E,2 E,2 z2 | A,2 A,2 A,4 | %21
 E,2 E,2 E,2 z2 | B,,2 B,,2 B,,>B,, B,,>B,, | E,8 |] %24

